X: 35108
T: Rolling Waves, The
R: jig
M: 6/8
K: Dmajor
FEF DED|D2d cAG|FEF DED|A2F GFE|
FEF DED|D2d cAG|FEF GFG|A2F GFE:|
D2d cAd|cAd cAG|F2d cAG|~F3 GFE|
D2d cde|fed cAG|FEF GFG|A2F GFE:|

